X: 6
T: The Minstrel's Fancy
R: hornpipe
M: 4/4
L: 1/8
K: Dmaj
|: FG | (3ABA FA (3BdB GB | AFAd f2ed | ceag edcd | (3efe (3dcB (3ABA FG |
| (3ABA FA (3BdB GB | AFAd (3fgf ed | ceag edcd | fedc d2 :|
|: ef | gfge cdec | de (3fed A3f | gf (3efg fe (3def | (3efe (3dcB (3ABA (3GFE |
| AGFA BAGB | AFAd f2ed | ceag edcd | (3efe dc d2 :|


Tune 2761	Setting 15989

